X:156
%%topspace -50
T:The Marquis of Lorne
M:4/4
L:1/16
K:G
b3a | "G"g3f g3e3 B4 e3d | "Am"c3B c3A E4 A3G | "D7"F3G A3B c3d e3f | "G"(3g2b2a2 (3g2f2e2 "D7"d4 b3a | 
"G"g3f g3e3 B4 e3d | "Am"c3B c3A E4 A3G | "D7"F3G A3B c3d e3f | "G"g4 b4 g4 :|
|: B3c | "G"d3B g3B d3g B3c | (3d2c2B2 g3B d4 c3B | "D7"c3A f3A c3f A3B | (3c2B2A2 f3A c4 B3A | 
"G"d3B g3B d3g B3c | (3d2c2B2 g3B d4 c3B | "Am"c3e a3g "D7"f3d e3f | "G"g4 b4 g4 :|

